X:946
T:Anniversary Waltz, The
C:Joe Buchanan's Scottish Tome - Page 551.2
I:551 2
Z:Carl Allison
R:Waltz
L:1/4
M:3/4
K:D
(D2 E) | (F2 A) | (B2 c) | B2 A | (B/d/ B/A/) B |( B2 F) | A3- | A3 |
(E2 F) | (G2 B) | (c2 d) | c2 B | (B/d/ B/A/) B | (B2 c) | F3- | F2 A | 
e2 e>d | e e>d | (c B)>F | (A2 G) | B2 B> A | B B>A | F c>B | (F2 E) |
(D2 E) | (F2 A) | (B2 c) | B2 c | (d/c/ B/c/) d |( c2 A) | d3- | d3 |]

